SVG_Azure_Grouped/Storage/Storage Account Recovery.svg

<?xml version="1.0" encoding="UTF-8" standalone="no"?>
<!-- Generated by Microsoft Visio, SVG Export Storage Account Recovery.svg Page-1 -->

<svg
   xmlns:dc="http://purl.org/dc/elements/1.1/"
   xmlns:cc="http://creativecommons.org/ns#"
   xmlns:rdf="http://www.w3.org/1999/02/22-rdf-syntax-ns#"
   xmlns:svg="http://www.w3.org/2000/svg"
   xmlns="http://www.w3.org/2000/svg"
   xmlns:sodipodi="http://sodipodi.sourceforge.net/DTD/sodipodi-0.dtd"
   xmlns:inkscape="http://www.inkscape.org/namespaces/inkscape"
   width="0.78736252in"
   height="0.70883918in"
   viewBox="0 0 56.690009 51.036319"
   xml:space="preserve"
   class="st7"
   version="1.1"
   id="svg63"
   sodipodi:docname="Storage Account Recovery.svg"
   style="font-size:12px;overflow:visible;color-interpolation-filters:sRGB;fill:none;fill-rule:evenodd;stroke-linecap:square;stroke-miterlimit:3"
   inkscape:version="0.92.5 (2060ec1f9f, 2020-04-08)"><metadata
   id="metadata67"><rdf:RDF><cc:Work
       rdf:about=""><dc:format>image/svg+xml</dc:format><dc:type
         rdf:resource="http://purl.org/dc/dcmitype/StillImage" /></cc:Work></rdf:RDF></metadata><sodipodi:namedview
   pagecolor="#ffffff"
   bordercolor="#666666"
   borderopacity="1"
   objecttolerance="10"
   gridtolerance="10"
   guidetolerance="10"
   inkscape:pageopacity="0"
   inkscape:pageshadow="2"
   inkscape:window-width="640"
   inkscape:window-height="480"
   id="namedview65"
   showgrid="false"
   inkscape:zoom="1.4868172"
   inkscape:cx="37.795387"
   inkscape:cy="34.015112"
   inkscape:window-x="0"
   inkscape:window-y="0"
   inkscape:window-maximized="0"
   inkscape:current-layer="svg63" />
	<style
   type="text/css"
   id="style2">
	<![CDATA[
		.st1 {fill:url(#grad0-6);stroke:none;stroke-linecap:butt;stroke-width:34}
		.st2 {fill:#000000;stroke:none;stroke-linecap:butt;stroke-width:0.75}
		.st3 {fill:url(#grad0-13);stroke:none;stroke-linecap:butt;stroke-width:34}
		.st4 {fill:#37c2b1;stroke:none;stroke-linecap:butt;stroke-width:34}
		.st5 {fill:#ffffff;stroke:none;stroke-linecap:butt;stroke-width:34}
		.st6 {fill:#258277;stroke:none;stroke-linecap:butt;stroke-width:34}
		.st7 {fill:none;fill-rule:evenodd;font-size:12px;overflow:visible;stroke-linecap:square;stroke-miterlimit:3}
	]]>
	</style>

	<defs
   id="Patterns_And_Gradients">
		<linearGradient
   id="grad0-6"
   x1="0"
   y1="90.730641"
   x2="48.481685"
   y2="90.730641"
   gradientTransform="scale(1.1693075,0.85520701)"
   gradientUnits="userSpaceOnUse">
			<stop
   offset="0"
   stop-color="#0078d4"
   stop-opacity="1"
   id="stop4" />
			<stop
   offset="1"
   stop-color="#5ea0ef"
   stop-opacity="1"
   id="stop6" />
		</linearGradient>
		<linearGradient
   id="grad0-13"
   x1="-0.0010409902"
   y1="132.4735"
   x2="20.656541"
   y2="132.4735"
   gradientTransform="scale(1.2862754,0.77743851)"
   gradientUnits="userSpaceOnUse">
			<stop
   offset="0"
   stop-color="#b3b3b3"
   stop-opacity="1"
   id="stop9" />
			<stop
   offset="1"
   stop-color="#e6e6e6"
   stop-opacity="1"
   id="stop11" />
		</linearGradient>
	</defs>
	<g
   id="g61"
   transform="translate(-34,-33.99797)">
		<title
   id="title15">Page-1</title>
		<g
   id="group20105-1"
   transform="translate(34,-34.0157)">
			<title
   id="title17">Storage Account Recovery.20105</title>
			<g
   id="group20106-2">
				<title
   id="title19">Sheet.20106</title>
				<g
   id="shape20107-3"
   transform="translate(0,-9.57981)">
					<title
   id="title21">Sheet.20107</title>
					<path
   d="M 56.69,105.96 A 12.7465,13.0361 -180 0 0 45.63,93.3 16.063,16.4281 -180 0 0 29.13,77.6 16.4976,16.8726 -180 0 0 13.38,88.7 15.1843,15.5293 -180 0 0 0,103.68 15.4331,15.7838 -180 0 0 15.83,119.05 H 43.9 a 12.9134,13.2069 -180 0 0 12.79,-13.09 z"
   class="st1"
   id="path23"
   inkscape:connector-curvature="0"
   style="fill:url(#grad0-6);stroke:none;stroke-width:34;stroke-linecap:butt" />
				</g>
				<g
   id="group20108-7"
   transform="translate(14.022,-16.3604)">
					<title
   id="title26">3b4c7da4-e396-46ab-8eeb-4c87ba1</title>
					<g
   id="shape20109-8">
						<title
   id="title28">Sheet.20109</title>
						<path
   d="M 33.35,106.59 27.42,96.75 16.11,91.5 9.12,91.83 0.78,95.62 0,112.21 h 6.5 l 13.75,-3.53 2.97,9.29 6.07,1.08 4.38,-7.51 z"
   class="st2"
   id="path30"
   inkscape:connector-curvature="0"
   style="fill:#000000;stroke:none;stroke-width:0.75;stroke-linecap:butt" />
					</g>
				</g>
				<g
   id="shape20110-10"
   transform="translate(1.96535)">
					<title
   id="title34">Sheet.20110</title>
					<path
   d="m 0,102.99 h 26.57 v 15.14 a 0.891339,0.911596 0 0 1 -0.888189,0.9116 L 0.89,119.05 a 0.891339,0.911596 0 0 1 -0.891339,-0.9116 z"
   class="st3"
   id="path36"
   inkscape:connector-curvature="0"
   style="fill:url(#grad0-13);stroke:none;stroke-width:34;stroke-linecap:butt" />
				</g>
				<g
   id="shape20111-14"
   transform="translate(1.96535,-16.0512)">
					<title
   id="title39">Sheet.20111</title>
					<path
   d="m 0.89,113.26 h 24.8 a 0.891339,0.911596 0 0 1 0.888189,0.9116 L 26.57,119.05 H 0 v -4.9 a 0.894488,0.914817 0 0 1 0.891339,-0.89549 z"
   class="st4"
   id="path41"
   inkscape:connector-curvature="0"
   style="fill:#37c2b1;stroke:none;stroke-width:34;stroke-linecap:butt" />
				</g>
				<g
   id="shape20112-16"
   transform="translate(5.1685,-11.1936)">
					<title
   id="title44">Sheet.20112</title>
					<path
   d="m 0.41,115.95 h 19.33 a 0.418898,0.428418 0 0 1 0.406299,0.43164 L 20.15,118.61 a 0.418898,0.428418 0 0 1 -0.406299,0.43164 L 0.41,119.05 A 0.418898,0.428418 0 0 1 0.003701,118.61836 L 0,116.38 a 0.418898,0.428418 0 0 1 0.406299,-0.43164 z"
   class="st5"
   id="path46"
   inkscape:connector-curvature="0"
   style="fill:#ffffff;stroke:none;stroke-width:34;stroke-linecap:butt" />
				</g>
				<g
   id="shape20113-18"
   transform="translate(5.18425,-6.71618)">
					<title
   id="title49">Sheet.20113</title>
					<path
   d="m 0.41,115.93 h 19.33 a 0.422047,0.431639 0 0 1 0.406299,0.43164 L 20.15,118.61 a 0.422047,0.431639 0 0 1 -0.406299,0.43164 L 0.41,119.05 A 0.422047,0.431639 0 0 1 0.003701,118.61836 L 0,116.44 a 0.422047,0.431639 0 0 1 0.337008,-0.50251 z"
   class="st4"
   id="path51"
   inkscape:connector-curvature="0"
   style="fill:#37c2b1;stroke:none;stroke-width:34;stroke-linecap:butt" />
				</g>
				<g
   id="shape20114-20"
   transform="translate(5.18425,-2.20651)">
					<title
   id="title54">Sheet.20114</title>
					<path
   d="m 0.41,115.93 h 19.33 a 0.422047,0.431639 0 0 1 0.406299,0.43164 L 20.15,118.61 a 0.422047,0.431639 0 0 1 -0.406299,0.43164 L 0.41,119.05 A 0.422047,0.431639 0 0 1 0.003701,118.61836 L 0,116.36 a 0.422047,0.431639 0 0 1 0.406299,-0.43164 z"
   class="st6"
   id="path56"
   inkscape:connector-curvature="0"
   style="fill:#258277;stroke:none;stroke-width:34;stroke-linecap:butt" />
				</g>
			</g>
		</g>
	</g>
</svg>

<?xml version="1.0" encoding="UTF-8" standalone="no"?>
<!DOCTYPE svg PUBLIC "-//W3C//DTD SVG 1.1//EN" "http://www.w3.org/Graphics/SVG/1.1/DTD/svg11.dtd">
<!-- Generated by Microsoft Visio, SVG Export Storage Account Recovery.svg Page-1 -->
<svg xmlns="http://www.w3.org/2000/svg" xmlns:xlink="http://www.w3.org/1999/xlink" xmlns:ev="http://www.w3.org/2001/xml-events"
		width="1.73185in" height="1.65342in" viewBox="0 0 124.693 119.046" xml:space="preserve" color-interpolation-filters="sRGB"
		class="st7">
	<style type="text/css">
	<![CDATA[
		.st1 {fill:url(#grad0-6);stroke:none;stroke-linecap:butt;stroke-width:34}
		.st2 {fill:#000000;stroke:none;stroke-linecap:butt;stroke-width:0.75}
		.st3 {fill:url(#grad0-13);stroke:none;stroke-linecap:butt;stroke-width:34}
		.st4 {fill:#37c2b1;stroke:none;stroke-linecap:butt;stroke-width:34}
		.st5 {fill:#ffffff;stroke:none;stroke-linecap:butt;stroke-width:34}
		.st6 {fill:#258277;stroke:none;stroke-linecap:butt;stroke-width:34}
		.st7 {fill:none;fill-rule:evenodd;font-size:12px;overflow:visible;stroke-linecap:square;stroke-miterlimit:3}
	]]>
	</style>

	<defs id="Patterns_And_Gradients">
		<linearGradient id="grad0-6" x1="0" y1="0" x2="1" y2="0" gradientTransform="rotate(-90 0.5 0.5)">
			<stop offset="0" stop-color="#0078d4" stop-opacity="1"/>
			<stop offset="1" stop-color="#5ea0ef" stop-opacity="1"/>
		</linearGradient>
		<linearGradient id="grad0-13" x1="0" y1="0" x2="1" y2="0" gradientTransform="rotate(-90 0.5 0.5)">
			<stop offset="0" stop-color="#b3b3b3" stop-opacity="1"/>
			<stop offset="1" stop-color="#e6e6e6" stop-opacity="1"/>
		</linearGradient>
	</defs>
	<g>
		<title>Page-1</title>
		<g id="group19650-1" transform="translate(34,-34.0157)">
			<title>Storage Account Recovery.19650</title>
			<g id="group19651-2">
				<title>Sheet.19651</title>
				<g id="shape19652-3" transform="translate(0,-9.57981)">
					<title>Sheet.19652</title>
					<path d="M56.69 105.96 A12.7465 13.0361 -180 0 0 45.63 93.3 A16.063 16.4281 -180 0 0 29.13 77.6 A16.4976 16.8726
								 -180 0 0 13.38 88.7 A15.1843 15.5293 -180 0 0 0 103.68 A15.4331 15.7838 -180 0 0 15.83 119.05 L43.9
								 119.05 A12.9134 13.2069 -180 0 0 56.69 105.96 Z" class="st1"/>
				</g>
				<g id="group19653-7" transform="translate(14.022,-16.3604)">
					<title>3b4c7da4-e396-46ab-8eeb-4c87ba1</title>
					<g id="shape19654-8">
						<title>Sheet.19654</title>
						<path d="M33.35 106.59 L27.42 96.75 L16.11 91.5 L9.12 91.83 L0.78 95.62 L0 112.21 L6.5 112.21 L20.25 108.68
									 L23.22 117.97 L29.29 119.05 L33.67 111.54 L33.35 106.59 Z" class="st2"/>
					</g>
				</g>
				<g id="shape19655-10" transform="translate(1.96535,-2.55795E-13)">
					<title>Sheet.19655</title>
					<path d="M0 102.99 L26.57 102.99 L26.57 118.13 a0.891339 0.911596 0 0 1 -0.888189 0.911596 L0.89 119.05 a0.891339
								 0.911596 0 0 1 -0.891339 -0.911596 L0 102.99 Z" class="st3"/>
				</g>
				<g id="shape19656-14" transform="translate(1.96535,-16.0512)">
					<title>Sheet.19656</title>
					<path d="M0.89 113.26 L25.69 113.26 a0.891339 0.911596 0 0 1 0.888189 0.911596 L26.57 119.05 L0 119.05 L0 114.15
								 a0.894488 0.914817 0 0 1 0.891339 -0.89549 Z" class="st4"/>
				</g>
				<g id="shape19657-16" transform="translate(5.1685,-11.1936)">
					<title>Sheet.19657</title>
					<path d="M0.41 115.95 L19.74 115.95 a0.418898 0.428418 0 0 1 0.406299 0.431639 L20.15 118.61 a0.418898 0.428418
								 0 0 1 -0.406299 0.431639 L0.41 119.05 a0.418898 0.428418 0 0 1 -0.406299 -0.431639 L0 116.38 a0.418898
								 0.428418 0 0 1 0.406299 -0.431639 Z" class="st5"/>
				</g>
				<g id="shape19658-18" transform="translate(5.18425,-6.71618)">
					<title>Sheet.19658</title>
					<path d="M0.41 115.93 L19.74 115.93 a0.422047 0.431639 0 0 1 0.406299 0.431639 L20.15 118.61 a0.422047 0.431639
								 0 0 1 -0.406299 0.431639 L0.41 119.05 a0.422047 0.431639 0 0 1 -0.406299 -0.431639 L0 116.44 a0.422047
								 0.431639 0 0 1 0.337008 -0.502505 L0.41 115.93 Z" class="st4"/>
				</g>
				<g id="shape19659-20" transform="translate(5.18425,-2.20651)">
					<title>Sheet.19659</title>
					<path d="M0.41 115.93 L19.74 115.93 a0.422047 0.431639 0 0 1 0.406299 0.431639 L20.15 118.61 a0.422047 0.431639
								 0 0 1 -0.406299 0.431639 L0.41 119.05 a0.422047 0.431639 0 0 1 -0.406299 -0.431639 L0 116.36 a0.422047
								 0.431639 0 0 1 0.406299 -0.431639 Z" class="st6"/>
				</g>
			</g>
		</g>
	</g>
</svg>
